projects/ccf-eui/src/assets/icons/organ-icons/organ-icon-bone-marrow.svg

<svg width="64" height="64" viewBox="0 0 64 64" fill="currentColor" xmlns="http://www.w3.org/2000/svg">
<g clip-path="url(#clip0_1795_188)">
<path d="M48.7718 9.47917C48.3724 9 47.9309 8.5625 47.4474 8.1875C45.6817 6.79167 43.4955 6.02083 41.2462 6C38.4715 6.02083 35.8228 7.1875 33.952 9.25C33.6997 9.54167 33.4685 9.83333 33.2372 10.1458C32.4595 11.0833 31.3243 11.6667 30.1051 11.7708C28.8228 11.7083 27.6246 11.125 26.8048 10.1458C26.5946 9.83333 26.3634 9.52083 26.0901 9.25C24.2402 7.1875 21.5495 6 18.7538 6C13.4144 6 9.06306 10.25 9 15.5417C9 15.9167 9 16.3125 9 16.6875C9.3994 21.3958 12.1111 25.2083 15.3063 29.5625C17.1141 32.3542 18.2282 35.5208 18.5856 38.8125V56H41.3934V38.8125C41.7507 35.5208 42.8649 32.3542 44.6727 29.5625C47.8679 25.2083 50.5796 21.3958 50.979 16.6875C50.979 16.3125 50.979 15.9167 50.979 15.5417C50.979 13.3333 50.1802 11.1667 48.7507 9.47917H48.7718ZM38.7658 12.2708C40.1321 12.2708 41.4565 12.7292 42.5285 13.5833C42.8228 13.8125 43.0961 14.0833 43.3273 14.375C43.4535 14.4792 43.5586 14.5833 43.6426 14.7083C41.8769 13.6667 39.964 12.8542 37.988 12.2708H38.7658ZM44.2102 17.5C43.1802 17.4167 42.1502 17.5833 41.1832 17.9375L40.994 18.0625C41.0781 16.8333 40.7628 15.6042 40.1111 14.5625C41.1622 15.125 42.8228 15.9375 43.033 16.125C43.4955 16.5208 43.8949 16.9792 44.2102 17.5ZM37.5465 14.25C37.988 14.5208 38.3453 14.8542 38.6396 15.2708C39.2703 16.125 39.5646 17.1667 39.4384 18.2083C39.1441 18.875 38.7237 19.4792 38.1982 20L37.8408 20.6667L37.6306 21.0833V21.1875C37.1892 21 36.7688 20.7708 36.3694 20.5208C36.2012 20.4375 36.0541 20.3333 35.9069 20.2292L35.7177 20.0625C35.5916 19.9375 35.4655 19.8125 35.3604 19.6667C35.3604 19.625 35.3604 19.6042 35.3604 19.5625V19.4375L35.4234 19.5C35.8859 19.1042 36.2853 18.625 36.5796 18.0833C37.1682 16.8958 37.5045 15.5833 37.5465 14.25ZM31.3033 28.5208C30.8408 28.75 30.3994 29.0208 30 29.3333L28.9279 30.0417C28.9069 29.8958 28.8649 29.7708 28.8018 29.6458C29.5586 29.1458 30.1261 28.4167 30.4204 27.5625C30.6516 26.7083 30.3363 25.6458 31.03 24.9375C31.1982 24.7708 31.3874 24.625 31.5766 24.5C32.018 25.3333 32.6697 26.0417 33.4474 26.5833C34.3514 27.2083 35.3393 27.7292 36.3904 28.0833H36.6006C37 28.625 37.2943 29.2292 37.4204 29.8958C36.1592 29.5417 35.003 28.8333 33.7417 28.5208C32.9429 28.2917 32.1021 28.2917 31.3033 28.5208ZM33.4895 30.25C33.2583 30.8333 32.985 31.375 32.7117 31.9375C31.976 31.5 31.1141 31.25 30.2523 31.2292L30.5886 31.0208C30.9459 30.7292 31.3243 30.4583 31.7447 30.25C32.3123 30.0625 32.9219 30.0625 33.4895 30.25ZM26.5315 26.375C26.5946 25.8542 26.7207 25.3542 26.952 24.8958C27.3724 23.8542 28.045 22.9167 28.9489 22.2292C30.042 21.5208 31.1982 20.9167 32.3964 20.4375C32.5435 20.4583 32.6697 20.4583 32.8168 20.4375C33.2162 20.4375 33.6156 20.3542 33.994 20.2083C34.1832 20.5417 34.4144 20.8333 34.6877 21.1042L32.5856 22.1042C31.6607 22.4792 30.7778 22.9792 29.979 23.6042C29.2222 24.3125 28.8018 25.3125 28.8649 26.3333C28.8649 26.7708 28.7808 27.1875 28.5916 27.5833C28.4234 27.8333 28.2132 28.0625 27.961 28.2708L27.5195 27.7083C27.1201 27.2708 26.5315 27.0208 26.5315 26.375ZM27.3724 31.9375C26.7417 32.3542 26.1952 32.8542 25.7538 33.4583L24.8288 32.6458C25.5646 31.5417 26.0901 30.2917 26.3844 29C27.0781 29.8333 27.4144 30.875 27.3724 31.9375ZM37.021 25.4583L36.7688 25.7917L36.6426 25.9583C36.5375 26.0625 36.4535 26.1667 36.3694 26.2917L35.8438 26.0625C35.3393 25.8125 34.8559 25.5417 34.3934 25.2292C33.973 24.9583 33.5946 24.6458 33.2583 24.2917C33.1111 24.1458 33.006 23.9792 32.9009 23.8125L33.3423 23.6042L36.1592 22.2917L37.4835 22.9375C37.4835 22.9375 37.6727 22.9583 37.7778 22.9375C37.8198 23.2917 37.9459 23.625 38.1141 23.9375L38.03 23.9792C37.7147 24.4792 37.3784 24.9792 37.021 25.4583ZM33.7628 14.8125C33.8889 14.625 34.036 14.4375 34.1832 14.2708C34.5616 13.8958 34.982 13.5625 35.4234 13.2708H35.8649C35.8649 14.3958 35.6757 15.5417 35.2973 16.6042L35.0661 16.4792L34.8348 16.3125L34.4565 16C34.2042 15.7708 33.973 15.5208 33.7628 15.2708H33.6156L33.4895 15.125L33.7628 14.8125ZM27.982 16C28.6547 16.4167 29.4324 16.6667 30.2312 16.6875C30.967 16.6458 31.7027 16.4375 32.3333 16.0417C32.9009 16.8333 33.6156 17.5 34.4354 18H34.5616C34.2883 18.2708 33.973 18.4792 33.6366 18.6458C33.2162 18.9167 32.6697 18.9167 32.2492 18.6458C31.9339 18.3125 31.5976 18.0208 31.2402 17.7292C30.5045 17.2917 29.6637 17.0417 28.8018 17.0417C28.3393 16.6875 27.7928 16.4583 27.2042 16.375L27.982 16ZM30.3153 19.0625C30.5045 19.1667 30.6517 19.2917 30.7988 19.4375C29.8739 19.6667 28.97 19.9792 28.1081 20.375C27.3934 20.875 26.7417 21.5 26.2372 22.2083L26.1321 22.0833L25.964 21.8125C25.7958 21.5833 25.6486 21.3542 25.5435 21.1042V20.9792C25.4384 20.8333 25.4384 20.6667 25.4384 20.5417V20.4167C25.4384 20.2708 25.4384 20.1042 25.4384 19.9583C26.6997 18.6458 28.6757 18.2708 30.3153 19.0625ZM21.5706 12.375C23.2733 12.375 24.8919 13.0833 26.027 14.3333C26.1952 14.5208 26.3423 14.7292 26.4895 14.9375H26.5946C26.1111 15.1458 25.6276 15.3333 25.1231 15.4583C23.5045 15.7083 21.8649 15.3333 20.5195 14.4375C19.8048 14.0208 19.1321 13.5625 18.4174 13.1875C19.3634 12.625 20.4565 12.3542 21.5706 12.375ZM17.0511 14.3542L17.3664 14.5H17.3874L16.1051 15.8125C16.3363 15.2708 16.6517 14.7917 17.0511 14.3542ZM15.7688 18.6042V18.4583L16.0631 18.1667C17.6396 20.375 18.5435 22.9792 18.7117 25.6875C17.1141 23.625 16.1051 21.1875 15.7688 18.6042ZM18.8378 19.4583V19.6458C18.3544 18.7083 17.7658 17.8333 17.0721 17.0208L18.7327 15.3333C19.4054 15.7708 20.0991 16.1458 20.8348 16.4583C20.3934 16.6667 19.994 16.9792 19.6787 17.375C19.3213 18.0417 19.048 18.7292 18.8378 19.4583ZM20.6246 19.7708L20.982 18.8333C21.0661 18.5625 21.1712 18.3125 21.2973 18.0833C21.3183 18.0208 21.3604 17.9583 21.4024 17.9167L21.6547 17.6667H21.7808C21.8859 17.6042 22.012 17.5417 22.1381 17.4792H22.2853L22.6216 17.3542L23.1892 17.2292C23.4204 17.4167 23.6727 17.5833 23.9459 17.7083C24.5135 17.8125 25.1021 17.875 25.6907 17.8542C24.9339 18.25 24.2613 18.7917 23.7147 19.4375C23.2523 20.1667 22.8739 20.9375 22.6216 21.75C22.012 22.4375 21.1712 22.8958 20.2673 23.0625C20.1622 22.5625 20.036 22.0833 19.9099 21.6042C20.1411 21 20.3724 20.375 20.6246 19.7708ZM20.2042 25.0625C21.2342 24.7708 22.2012 24.2708 23.0631 23.625C23.5676 23.1458 23.9459 22.5625 24.1562 21.8958C24.1772 22 24.2192 22.1042 24.2613 22.1875C24.4084 22.4583 24.5766 22.7083 24.7447 22.9583C24.9339 23.2917 25.2072 23.5833 25.5225 23.8125H25.6486C25.3333 24.3958 25.1231 25.0417 24.997 25.6875V25.9583C24.8709 25.8542 24.7447 25.75 24.5976 25.6875C23.988 25.4792 23.3363 25.4792 22.7267 25.6875C22.1592 25.8542 21.6757 26.1875 21.0871 26.4792C20.8559 26.5833 20.6036 26.6458 20.3514 26.7083C20.3303 26.1667 20.2042 25.6042 20.2042 25.0625ZM20.5616 28.2083C20.8138 28.1667 21.045 28.125 21.2763 28.0417C21.8018 27.8333 22.3273 27.6042 22.8318 27.3333C23.1471 27.1458 23.5255 27.0625 23.8829 27.0833C24.009 27.125 24.1351 27.1875 24.2402 27.2708L24.7237 27.7708C24.7237 27.7708 24.8288 27.9167 24.8919 27.9583C24.7027 28.6667 24.5135 29.3542 24.2823 30.0417C24.2402 30.2083 24.1772 30.375 24.1141 30.5417V30.6875L23.988 30.9583C23.9039 31.1042 23.8198 31.25 23.7147 31.3958C23.7147 31.4375 23.6727 31.4792 23.6517 31.5208L21.2763 29.4375C21.0661 29.0208 20.8138 28.6042 20.5616 28.2083ZM23.021 35.375C22.8739 34.4375 22.6847 33.5208 22.4324 32.6042L24.9339 34.75C24.3243 35.0208 23.6727 35.2292 23.021 35.375ZM34.8769 39.9583V54.5417L25.3754 54.3958V39.8125C25.1231 36.9167 27.2252 34.3542 30.1261 34.0208H30.1682C33.1111 34.375 35.2132 37.0208 34.8769 39.9583ZM37.3784 35.0833C37.2102 34.9375 37.042 34.7708 36.8739 34.6458C35.991 33.9792 35.045 33.4167 34.015 33C34.3934 32.25 34.7087 31.4792 35.003 30.7083C35.8649 31.1042 36.7688 31.3958 37.6937 31.5833C37.7778 31.8333 37.8829 32.0833 37.988 32.3333C37.7147 33.2292 37.5045 34.1458 37.3784 35.0833ZM40.0901 27.7708C39.6276 28.4167 39.2282 29.125 38.9129 29.8542C38.7658 28.8542 38.4084 27.9167 37.8198 27.0833C38.2823 26.4792 38.7447 25.8542 39.1652 25.2083C39.5225 25.5208 39.9009 25.7917 40.3003 26.0417C40.5315 26.2083 40.7838 26.3542 41.036 26.4792C40.7417 26.8958 40.4264 27.3333 40.0901 27.7708ZM41.9399 25.1875C41.4985 24.9167 41.0571 24.6667 40.6156 24.3542C39.6276 23.6875 38.997 22.8125 39.6276 21.6042L39.7538 21.3958C39.9009 21.0625 40.1532 20.7708 40.4474 20.5625C40.5946 20.4375 40.7417 20.3333 40.9099 20.2292C41.6456 21.1458 42.4024 22.2292 43.1381 23.2292C42.8018 23.8542 42.4024 24.5 41.9399 25.1875ZM43.8949 21.625C43.3273 20.8542 42.7808 20.0625 42.2132 19.2708C42.4865 19.2083 42.7808 19.1458 43.0541 19.125C43.5586 19.0625 44.0631 19.0625 44.5676 19.125C44.4625 19.9792 44.2312 20.8333 43.8949 21.625Z" />
</g>
<defs>
<clipPath id="clip0_1795_188">
<rect width="42" height="50"  transform="translate(9 6)"/>
</clipPath>
</defs>
</svg>

<svg xmlns="http://www.w3.org/2000/svg" width="64" height="64" fill="currentColor" viewBox="0 0 64 64"><g clip-path="url(#a)"><path d="M48.772 9.48c-.4-.48-.841-.918-1.325-1.293A10.16 10.16 0 0 0 41.247 6a9.94 9.94 0 0 0-7.295 3.25c-.252.292-.483.583-.715.896a4.58 4.58 0 0 1-3.132 1.625 4.59 4.59 0 0 1-3.3-1.625 6 6 0 0 0-.715-.896C24.24 7.188 21.55 6 18.754 6c-5.34 0-9.69 4.25-9.754 9.542v1.146c.4 4.708 3.111 8.52 6.306 12.875a21.2 21.2 0 0 1 3.28 9.25V56h22.807V38.813a21.2 21.2 0 0 1 3.28-9.25c3.195-4.355 5.907-8.167 6.306-12.875v-1.146a9.43 9.43 0 0 0-2.228-6.063zm-10.006 2.79a6.03 6.03 0 0 1 3.763 1.313c.294.23.567.5.798.792.127.104.232.208.316.333a25.2 25.2 0 0 0-5.655-2.437zm5.444 5.23a7.1 7.1 0 0 0-3.027.438l-.189.125a5.86 5.86 0 0 0-.883-3.5c1.051.562 2.712 1.374 2.922 1.562.462.396.862.854 1.177 1.375m-6.663-3.25c.441.27.798.604 1.093 1.02.63.855.925 1.897.798 2.938A5.9 5.9 0 0 1 38.198 20l-.357.667-.21.416v.105a9 9 0 0 1-1.262-.667c-.168-.084-.315-.188-.462-.292l-.19-.166c-.125-.125-.252-.25-.357-.396v-.23l.063.063a5 5 0 0 0 1.157-1.417c.588-1.187.925-2.5.967-3.833m-6.244 14.27c-.462.23-.904.5-1.303.813l-1.072.709a1.3 1.3 0 0 0-.126-.396 4.1 4.1 0 0 0 1.618-2.084c.232-.854-.084-1.916.61-2.625.168-.166.357-.312.547-.437a5.96 5.96 0 0 0 1.87 2.083 11.9 11.9 0 0 0 2.943 1.5h.21c.4.542.694 1.146.82 1.813-1.26-.354-2.417-1.063-3.678-1.375a4.4 4.4 0 0 0-2.439 0m2.186 1.73c-.23.583-.504 1.125-.777 1.688a5.1 5.1 0 0 0-2.46-.709l.337-.208a6.2 6.2 0 0 1 1.156-.771 2.78 2.78 0 0 1 1.744 0m-6.957-3.875c.063-.52.189-1.02.42-1.48.42-1.04 1.093-1.978 1.997-2.666a20 20 0 0 1 3.447-1.791c.148.02.274.02.42 0 .4 0 .8-.084 1.178-.23.19.334.42.625.694.896l-2.102 1c-.925.375-1.808.875-2.607 1.5-.757.709-1.177 1.709-1.114 2.73 0 .437-.084.854-.273 1.25q-.253.375-.631.687l-.441-.563c-.4-.437-.988-.687-.988-1.333m.84 5.563a6.2 6.2 0 0 0-1.618 1.52l-.925-.812A11 11 0 0 0 26.384 29a4.3 4.3 0 0 1 .988 2.938m9.649-6.48-.252.334-.126.166a2 2 0 0 0-.274.334l-.525-.23a12.4 12.4 0 0 1-1.45-.833 6.2 6.2 0 0 1-1.136-.937 2.6 2.6 0 0 1-.357-.48l.441-.208 2.817-1.312 1.325.645s.189.021.294 0c.042.355.168.688.336 1l-.084.042c-.315.5-.652 1-1.009 1.48m-3.258-10.645c.126-.188.273-.376.42-.542a8 8 0 0 1 1.24-1h.442c0 1.125-.19 2.27-.568 3.333l-.23-.125-.232-.166-.379-.313a8 8 0 0 1-.693-.73h-.147l-.127-.145zM27.982 16c.673.417 1.45.667 2.25.688a4.43 4.43 0 0 0 2.101-.646A7.2 7.2 0 0 0 34.435 18h.127c-.274.27-.589.48-.925.646-.42.27-.967.27-1.388 0a10.5 10.5 0 0 0-1.009-.917 4.8 4.8 0 0 0-2.438-.687 3.4 3.4 0 0 0-1.598-.667zm2.333 3.063c.19.104.337.229.484.375-.925.229-1.829.541-2.69.937a7.8 7.8 0 0 0-1.872 1.833l-.105-.125-.168-.27a3.5 3.5 0 0 1-.42-.709v-.125c-.106-.146-.106-.312-.106-.437v-.584c1.262-1.312 3.238-1.687 4.877-.895m-8.744-6.688c1.702 0 3.32.708 4.456 1.958.168.188.315.396.462.604h.106a9.5 9.5 0 0 1-1.472.521 6.51 6.51 0 0 1-4.603-1.02c-.715-.417-1.388-.876-2.103-1.25a5.94 5.94 0 0 1 3.154-.813m-4.52 1.98.315.145h.021l-1.282 1.313c.231-.542.547-1.021.946-1.459m-1.282 4.25v-.147l.294-.291a14.46 14.46 0 0 1 2.649 7.52 14.6 14.6 0 0 1-2.943-7.083m3.069.853v.188a13.7 13.7 0 0 0-1.766-2.625l1.66-1.688c.673.438 1.367.813 2.103 1.125-.442.209-.841.521-1.156.917-.358.667-.631 1.354-.841 2.083m1.787.313.357-.938q.127-.405.315-.75a.45.45 0 0 1 .105-.166l.253-.25h.126c.105-.063.231-.125.357-.188h.147l.337-.125.567-.125c.231.188.484.354.757.48a8 8 0 0 0 1.745.145 6.6 6.6 0 0 0-1.976 1.584c-.463.729-.841 1.5-1.093 2.312a4.16 4.16 0 0 1-2.355 1.313c-.105-.5-.231-.98-.357-1.459.231-.604.462-1.229.715-1.833m-.42 5.291a8.8 8.8 0 0 0 2.858-1.437 4.06 4.06 0 0 0 1.093-1.73c.021.105.063.21.105.293.147.27.316.52.484.77.189.334.462.625.777.855h.127a6.6 6.6 0 0 0-.652 1.875v.27c-.126-.104-.252-.208-.4-.27a2.88 2.88 0 0 0-1.87 0c-.568.166-1.051.5-1.64.791-.231.104-.483.167-.736.23-.02-.542-.147-1.105-.147-1.646m.357 3.146c.252-.041.483-.083.714-.166a15 15 0 0 0 1.556-.709c.315-.187.694-.27 1.05-.25.127.042.253.105.358.188l.484.5s.105.146.168.187c-.19.709-.378 1.396-.61 2.084a5 5 0 0 1-.168.5v.145l-.126.271a5 5 0 0 1-.273.438c0 .041-.042.083-.063.125l-2.376-2.084a14 14 0 0 0-.714-1.229m2.459 7.167a25 25 0 0 0-.589-2.77l2.502 2.145c-.61.27-1.261.48-1.913.625m11.856 4.583v14.584l-9.502-.146V39.813c-.252-2.896 1.85-5.459 4.751-5.792h.042c2.943.354 5.045 3 4.709 5.937m2.501-4.875c-.168-.145-.336-.312-.504-.437A12.6 12.6 0 0 0 34.015 33c.378-.75.694-1.52.988-2.292a12.3 12.3 0 0 0 2.69.875c.085.25.19.5.295.75a17.4 17.4 0 0 0-.61 2.75m2.712-7.312a11.3 11.3 0 0 0-1.177 2.083 6.36 6.36 0 0 0-1.093-2.77 30 30 0 0 0 1.345-1.876c.358.313.736.584 1.135.834.232.166.484.312.736.437-.294.417-.61.854-.946 1.292m1.85-2.584c-.441-.27-.883-.52-1.324-.833-.988-.666-1.619-1.541-.988-2.75l.126-.208c.147-.334.4-.625.693-.834.148-.125.295-.229.463-.333.736.917 1.492 2 2.228 3-.336.625-.736 1.271-1.198 1.959m1.955-3.562c-.568-.77-1.114-1.562-1.682-2.354.273-.063.568-.125.841-.146a6.1 6.1 0 0 1 1.514 0 9.4 9.4 0 0 1-.673 2.5"/></g><defs><clipPath id="a"><path d="M9 6h42v50H9z"/></clipPath></defs></svg>
